svgs/barquode.svg

<svg width="192" height="192" viewBox="0 0 192 192" fill="none" xmlns="http://www.w3.org/2000/svg">
<path d="M53 57C55.2091 57 57 55.2091 57 53C57 50.7909 55.2091 49 53 49C50.7909 49 49 50.7909 49 53C49 55.2091 50.7909 57 53 57Z" stroke="#000" stroke-width="8" stroke-linecap="round" stroke-linejoin="round"/>
<path d="M53 143C55.2091 143 57 141.209 57 139C57 136.791 55.2091 135 53 135C50.7909 135 49 136.791 49 139C49 141.209 50.7909 143 53 143Z" stroke="#000" stroke-width="8" stroke-linecap="round" stroke-linejoin="round"/>
<path d="M139 57C141.209 57 143 55.2091 143 53C143 50.7909 141.209 49 139 49C136.791 49 135 50.7909 135 53C135 55.2091 136.791 57 139 57Z" stroke="#000" stroke-width="8" stroke-linecap="round" stroke-linejoin="round"/>
<path d="M139 111H117C113.686 111 111 113.686 111 117V139M139 167H161C164.314 167 167 164.314 167 161V139M31 25H75C78.3137 25 81 27.6863 81 31V75C81 78.3137 78.3137 81 75 81H31C27.6863 81 25 78.3137 25 75V31C25 27.6863 27.6863 25 31 25ZM31 111H75C78.3137 111 81 113.686 81 117V161C81 164.314 78.3137 167 75 167H31C27.6863 167 25 164.314 25 161V117C25 113.686 27.6863 111 31 111ZM117 25H161C164.314 25 167 27.6863 167 31V75C167 78.3137 164.314 81 161 81H117C113.686 81 111 78.3137 111 75V31C111 27.6863 113.686 25 117 25Z" stroke="#000" stroke-width="12" stroke-linecap="round" stroke-linejoin="round"/>
</svg>

<svg xmlns="http://www.w3.org/2000/svg" width="192" height="192" fill="none"><path stroke="#000" stroke-linecap="round" stroke-linejoin="round" stroke-width="8" d="M53 57a4 4 0 1 0 0-8 4 4 0 0 0 0 8M53 143a4 4 0 1 0 0-8 4 4 0 0 0 0 8M139 57a4 4 0 1 0 0-8 4 4 0 0 0 0 8"/><path stroke="#000" stroke-linecap="round" stroke-linejoin="round" stroke-width="12" d="M139 111h-22a6 6 0 0 0-6 6v22m28 28h22a6 6 0 0 0 6-6v-22M31 25h44a6 6 0 0 1 6 6v44a6 6 0 0 1-6 6H31a6 6 0 0 1-6-6V31a6 6 0 0 1 6-6m0 86h44a6 6 0 0 1 6 6v44a6 6 0 0 1-6 6H31a6 6 0 0 1-6-6v-44a6 6 0 0 1 6-6m86-86h44a6 6 0 0 1 6 6v44a6 6 0 0 1-6 6h-44a6 6 0 0 1-6-6V31a6 6 0 0 1 6-6"/></svg>
